X: 926
T: Gül Mevsimi
C: Tanburî Mustafa Çavuş
O: Turkey
F: http://compmusic.upf.edu/node/140
N: mahur--sarki--duyek--gul_mevsimi--tanburi_mustafa_cavus
N: makam= mahur
N: form= sarki
N: usul= duyek = 8/4
M: 8/4
L: 1/16
K: C ^9/8f   
Q: 1/4=120
%%MIDI tuningsystem comma53
z2 g4 _b2 a2 g2 f2 _7/8e2  | f2 g2 _ba gf g3f gf g2  | \
w:   |   | 
z2 f4 g2 ag f_7/8e de fg  | 
w:   | 
_7/8e2 f2 fg fe fg fe fe f2  | z2 _7/8ef g2 a2 a2 g2 =f2 =e2  | 
w:   |   | 
d2 ef/g/ fe ed d^9/8c d3c dc  | d2 z2 cd c2 d2 e3d ef  | 
w:   |   | 
ga ag =fe d2 cB fe de c2  | =f2 fe d4 a2 ag fe d2  | 
w:   |   | 
cB zA2G AB cd zB2G _BA  | GF G6 ef g3a gf  | 
w:   |   | 
g2 z2 g4 _b2 a2 g2 f2  | _7/8e2 f2 g2 _ba gf g3f gf  | \
w:   |   | 
g2 z2 f4 g2 ag f_7/8e de  | 
w:   | 
fg _7/8e2 f2 fg fe fg fe fe  | f2 z2 _7/8ef g2 a2 a2 g2 =f2  | 
w:   |   | 
e2 d2 ef/g/ fe ed d^9/8c d3c  | d^9/8c d2 z2 =cd c2 d2 e3d  | 
w:   |   | 
ef ga ag =fe d2 cB fe de  | c2 =f2 fe d4 a2 ag fe  | 
w:   |   | 
d2 cB zA2G AB cd zB2G  | _BA GF G6 =B^9/8c d3e  | 
w:   |   | 
d^9/8c d2 z2 B=c B2 ^9/8c2 d3c  | \
w:   | 
d2 e=f e3/2d/ ^9/8cd cd ec d3c  | 
w:   | 
d^9/8c d2 z2 B=c B2 ^9/8c2 d3c  | \
w:   | 
B2 f2 e3d d3c ed cB  | ^9/8cB A2 z2 Bc Bc BA B2 c2  | 
w:   |   | 
d2 ef ag =fe ed d^9/8c d3c  | d^9/8c d2 z2 =cd c2 d2 e3d  | 
w:   |   | 
ef ga ag =fe d2 cB fe de  | c2 =f2 fe d4 a2 ag fe  | 
w:   |   | 
d2 cB zA2G AB cd zB2G  | _BA GF G6 =BA G3F  | 
w:   |   | 
GF G2 G2 A_B A2 G2 A=B AG  | AB cd dc BA G2 z2 d3^9/8c  | 
w:   |   | 
d2 g2 g=f fe ed dc zB2G  | AB cd zB2G _BA GF G6 cB A3=B c3d e=f ed  | 
w:   |   | 
cB cz z2 d4 ef gf ef  | gf gz z2 =f4 e2 de dc  | 
w:   |   | 
B3G A3^c _7/8BA GF G3f  | ef gz z2 g4 _b2 a2 g2  | \
w:   |   | 
f2 _7/8e2 f2 g2 _ba gf g3f  | 
w:   | 
gf g2 z2 f4 g2 ag f_7/8e  | d_7/8e fg e2 f2 fg fe fg fe  | 
w:   |   | 
f_7/8e f2 z2 ef g2 a2 a2 g2  | =f2 e2 d2 e^9/8f/g/ fe ed d^9/8c d3c dc d2 z2 =cd c2 d2 e3d ef ga ag =fe d2 cB fe  | 
w:   |   | 
de c2 =f2 fe d4 a2 ag  | =fe d2 cB zA2G AB cd zB2G _BA GF G6 e^9/8f g3a gf g2 z2 g4 _b2 a2  | 
w:   |   | 
g2 f2 _7/8e2 f2 g2 _ba gf g3f gf g2 z2 f4 g2 ag  | \
w:   | 
f_7/8e de fg e2 f2 fg fe fg  | 
w:   | 
f_7/8e fe f2 z2 ef g2 a2 a2  | g2 =f2 e2 d2 e^9/8f/g/ fe ed d^9/8c  | 
w:   |   | 
d3^9/8c dc d2 z2 =cd c2 d2  | e3d ef ga ag =fe d2 cB  | 
w:   |   | 
=fe de c2 f2 fe d4 a2  | ag =fe d2 cB zA2G AB cd  | 
w:   |   | 
zB2G _BA GF G6 =B^9/8c  | d3e d^9/8c d2 z2 B=c B2 ^9/8c2  | \
w:   |   | 
d3^9/8c d2 e=f e3/2d/ cd cd ec  | 
w:   | 
d3^9/8c dc d2 z2 B=c B2 ^9/8c2  | \
w:   | 
d3^9/8c B2 f2 e3d d3=c  | ed cB ^9/8cB A2 z2 Bc Bc BA  | 
w:   |   | 
B2 ^9/8c2 d2 ef ag =fe ed dc  | d3^9/8c dc d2 z2 =cd c2 d2  | 
w:   |   | 
e3d ef ga ag =fe d2 cB  | =fe de c2 f2 fe d4 a2  | 
w:   |   | 
ag =fe d2 cB zA2G AB cd  | zB2G _BA GF G6 =BA  | 
w:   |   | 
G3F GF G2 G2 A_B A2 G2  | AB AG AB cd dc BA G2 z2  | 
w:   |   | 
d3^9/8c d2 g2 g=f fe ed d=c  | zB2G AB cd zB2G _BA GF  | 
w:   |   | 
G6 c_B A3=B c3d  | e=f ed cB cz z2 d4 e^9/8f  | \
w:   |   | 
gf ef gf gz z2 =f4 e2  | 
w:   | 
de dc B3G A3^c _7/8BA GF  | G3f ef gz |
w:   |   | 


